packages/core/src/svgs/networks/mono/kujira.svg

<svg width="24" height="24" viewBox="0 0 24 24" fill="none" xmlns="http://www.w3.org/2000/svg">
<path d="M22 5.74945V4.49964H17.323C17.111 3.65678 16.8649 2.82287 16.5851 2L15.0801 2.2625C15.3601 2.98148 15.6226 3.76316 15.8414 4.49964H11.3729V5.74945H22ZM10.3375 16.3751V7.34345H8.13534C8.66101 6.54905 9.12095 5.71306 9.51063 4.84381V3.87691H5.9055C6.10529 3.4394 6.2803 2.93919 6.4553 2.48271L5.05528 2.04521C4.49768 4.00398 3.44554 5.78634 2 7.22094L2.32375 8.76389C2.61251 8.50139 2.98731 8.23888 3.24981 7.95741V16.3751H10.3375ZM6.6303 7.35074H3.69899C4.29206 6.64975 4.82534 5.90792 5.29883 5.12527H8.04929C7.62636 5.89917 7.15337 6.641 6.6303 7.35074ZM15.624 22C16.7178 22 16.9993 21.3947 16.9993 20.1945V13.8755H20.7501V7.62491H12.2684V13.8755H15.7495V19.8256C15.7495 20.3695 15.5307 20.7501 15.0932 20.7501C14.593 20.7501 14.068 20.7064 13.543 20.6438L13.8492 22H15.624ZM6.37509 11.3759H4.49964V8.62535H6.37509V11.3759ZM8.87472 11.3759H7.62491V8.62535H8.87472V11.3759ZM19.5004 12.6256H13.75V8.87472H19.5004V12.6256ZM8.87472 15.1253H7.62491V12.6271H8.87472V15.1253ZM6.37509 15.1253H4.5113V12.6271H6.37509V15.1253ZM11.6938 21.3759C12.7313 19.7035 13.566 17.9137 14.1802 16.044L12.9187 15.4374C12.318 17.2197 11.5105 18.9255 10.5125 20.5197L11.6938 21.3759Z" fill="white"/>
<path d="M22 19.9504L20.8129 20.7495C20.0736 19.0461 19.217 17.3961 18.2491 15.8115L19.4376 15.126C20.3985 16.6751 21.2545 18.2869 22 19.9504ZM10.7501 19.8555L9.73662 20.1254C9.49682 19.1737 9.20916 18.2347 8.87472 17.3121L9.84312 17C10.1741 17.8124 10.4614 18.769 10.7501 19.8555ZM8.87472 21.2307L7.69929 21.3751C7.58699 19.5376 7.3624 18.1245 6.99928 17.143L8.12512 17C8.49264 18.037 8.73764 19.4442 8.87472 21.2307ZM6.37509 21.238L5.32507 21.3751C5.28715 19.5492 5.22444 18.1245 5.12381 17.1371L6.09362 17C6.23071 18.037 6.33718 19.4574 6.37509 21.238ZM4.49964 17.1677C4.34359 18.979 3.99941 20.5861 3.44961 21.9979L2 21.5924C2.61229 20.1316 2.97749 18.5791 3.08065 16.9986L4.49964 17.1677Z" fill="white"/>
</svg>

<svg xmlns="http://www.w3.org/2000/svg" width="24" height="24" fill="none" viewBox="0 0 24 24">
    <path fill="#fff" d="M22 5.75V4.5h-4.677a32 32 0 0 0-.738-2.5l-1.505.263c.28.718.543 1.5.761 2.237h-4.468v1.25zM10.338 16.374V7.343H8.135q.79-1.193 1.376-2.5v-.966H5.906c.2-.438.374-.938.55-1.394l-1.4-.438A11.9 11.9 0 0 1 2 7.221l.324 1.543c.289-.263.663-.525.926-.807v8.418zM6.63 7.351H3.7a17 17 0 0 0 1.6-2.226h2.75a20 20 0 0 1-1.42 2.226M15.624 22c1.094 0 1.375-.605 1.375-1.805v-6.32h3.751v-6.25h-8.482v6.25h3.481v5.95c0 .544-.218.925-.656.925-.5 0-1.025-.044-1.55-.106L13.849 22zM6.375 11.376H4.5v-2.75h1.875zm2.5 0h-1.25v-2.75h1.25zm10.625 1.25h-5.75V8.875h5.75zm-10.625 2.5h-1.25v-2.499h1.25zm-2.5 0H4.511v-2.499h1.864zm5.319 6.25a24.8 24.8 0 0 0 2.486-5.332l-1.261-.607a24 24 0 0 1-2.407 5.083z"/>
    <path fill="#fff" d="m22 19.95-1.187.8a40 40 0 0 0-2.564-4.938l1.189-.686A41 41 0 0 1 22 19.95m-11.25-.095-1.013.27q-.36-1.428-.862-2.813L9.843 17c.331.812.618 1.769.907 2.855m-1.875 1.376-1.176.144c-.112-1.837-.337-3.25-.7-4.232L8.125 17c.368 1.037.613 2.444.75 4.23m-2.5.007-1.05.137c-.038-1.826-.1-3.25-.201-4.238l.97-.137c.137 1.037.243 2.457.281 4.238M4.5 17.168c-.156 1.811-.5 3.418-1.05 4.83L2 21.592c.612-1.46.977-3.013 1.08-4.593z"/>
</svg>
